src/svg/cart-arrow-down.svg

<svg height="1000" width="1125.0" xmlns="http://www.w3.org/2000/svg">
    <path d="m985.8 625h-572.6l12.8 62.5h524.3c30 0 52.3 27.9 45.7 57.3l-10.8 47.4c36.5 17.7 61.7 55.1 61.7 98.4 0 61-49.9 110.3-111 109.4-58.3-0.8-106.2-48.1-107.7-106.4-0.9-31.8 11.9-60.6 32.8-81.1h-409.5c20.3 19.9 32.9 47.5 32.9 78.1 0 62.2-51.8 112.2-114.6 109.3-55.8-2.6-101.1-47.6-104-103.4-2.3-43 20.4-80.9 54.8-100.7l-137.2-670.8h-136.5c-25.9 0-46.9-21-46.9-46.9v-31.2c0-25.9 21-46.9 46.9-46.9h200.2c22.3 0 41.5 15.7 46 37.5l17.9 87.5h767.1c30.1 0 52.4 27.9 45.7 57.3l-92.3 406.2c-4.9 21.4-23.8 36.5-45.7 36.5z m-198.6-250h-84.1v-117.2c0-12.9-10.5-23.4-23.4-23.4h-46.9c-12.9 0-23.4 10.5-23.4 23.4v117.2h-84.1c-20.8 0-31.3 25.2-16.5 40l130.9 130.9c9.1 9.2 24 9.2 33.1 0l130.9-130.9c14.8-14.8 4.3-40-16.5-40z" />
  </svg>

<svg height="1000" width="1125" xmlns="http://www.w3.org/2000/svg"><path d="M985.8 625H413.2l12.8 62.5h524.3c30 0 52.3 27.9 45.7 57.3l-10.8 47.4c36.5 17.7 61.7 55.1 61.7 98.4 0 61 -49.9 110.3 -111 109.4C877.6 999.2 829.7 951.9 828.2 893.6c-.9 -31.8 11.9 -60.6 32.8 -81.1H451.5c20.3 19.9 32.9 47.5 32.9 78.1 0 62.2 -51.8 112.2 -114.6 109.3C314 997.3 268.7 952.3 265.8 896.5c-2.3 -43 20.4 -80.9 54.8 -100.7L183.4 125H46.9C21 125 0 104 0 78.1V46.9C0 21 21 0 46.9 0h200.2c22.3 0 41.5 15.7 46 37.5L311 125h767.1c30.1 0 52.4 27.9 45.7 57.3l-92.3 406.2c-4.9 21.4 -23.8 36.5 -45.7 36.5zM787.2 375h-84.1V257.8c0 -12.9 -10.5 -23.4 -23.4 -23.4h-46.9c-12.9 0 -23.4 10.5 -23.4 23.4V375h-84.1c-20.8 0 -31.3 25.2 -16.5 40l130.9 130.9c9.1 9.2 24 9.2 33.1 0L803.7 415c14.8 -14.8 4.3 -40 -16.5 -40z"/></svg>
